X:1
T:Allans Bonnet  "CYMRU"
M:C
L:1/8
Q:80
C:Arr. G.S. Allan
S:Strathspey
K:HP
a | \
{AGAG}A2{gcd}c/2{e}A3/2{gef}e3/2c/2{gcd}c/2{e}A3/2 | \
{Gdc}d3/2f/2{gef}e3/2c/2{gfg}f3/2B/2{G}B3/2a/2 | \
{AGAG}A2{gcd}c/2{e}A3/2{gef}e3/2A/2{gcd}c/2{e}A3/2 |
{Gdc}d3/2f/2{gef}e3/2d/2{gcd}c/2{e}A3/2{AGAG}A3/2a/2 | | \
{AGAG}A2{gcd}c/2{e}A3/2{gef}e3/2A/2{gcd}c/2{e}A3/2 | \
{Gdc}d3/2f/2{gef}e3/2c/2{gfg}f3/2B/2{G}B3/2e/2 |
{ag}a3/2g/2a3/2e/2{g}((3fga){ef}e3/2c/2 | \
{Gdc}d3/2f/2{gef}e3/2d/2{gcd}c/2{e}A3/2{GAG}A2|]
e |
{ag}a3/2f/2{gef}e3/2c/2{g}A3/2{d}c/2{gef}e3/2c/2 | \
{Gdc}d3/2f/2{gef}e3/2c/2{gfg}f3/2B/2{G}B3/2e/2 | \
{ag}a3/2f/2{gef}e3/2c/2{g}A3/2{d}c/2{gef}e3/2c/2 |
{Gdc}d3/2f/2{gef}e3/2d/2{gcd}c/2{e}A3/2{GAG}Ae | | \
{ag}a3/2f/2{gef}e3/2c/2{g}A3/2{d}c/2{gef}e3/2c/2 | \
{Gdc}d3/2f/2{gef}e3/2c/2{gfg}f3/2B/2{G}B3/2e/2 |
{ag}a2{GdG}a3/2g/2{afg}f3/2d/2{gef}e3/2c/2 | \
{Gdc}d3/2f/2{gef}e3/2d/2{gcd}c/2{e}A3/2{GAG}A2|]
a2 |
{AGAG}A2{gcd}c/2{e}A3/2{gAGAG}A2{gef}e3/2c/2 | \
{Gdc}d3/2f/2{gef}e3/2c/2{gfg}f3/2B/2{G}B3/2a/2 | \
{AGAG}A2{gcd}c/2{e}A3/2{gAGAG}A2{gef}e3/2c/2 |
{Gdc}d3/2f/2{gef}e3/2d/2{gcd}c/2A3/2{GAG}Aa | | \
{AGAG}A2{gcd}c/2{e}A3/2{gAGAG}A2{gef}e3/2c/2 | \
{Gdc}d3/2f/2{gef}e3/2c/2{gfg}f3/2B/2{G}B3/2e/2 |
{ag}a2{GdG}((3a3/2e/2{g}fga){ef}e3/2c/2 | \
{Gdc}d3/2f/2{gef}e3/2d/2{gcd}c/2{e}A3/2{AGAG}A2|]
e |
{ag}a3/2g/2a3/2e/2{gAGAG}A/2a3/2{cd}c/2{e}A3/2 | \
{g}G3/2d/2{gBG}B3/2g/2{Gdc}d/2{e}G3/2{gBd}B3/2e/2 | \
{ag}a3/2g/2a3/2e/2{gAGAG}A/2a3/2{ef}e3/2c/2 |
{Gdc}d3/2f/2{gef}e3/2d/2{gcd}c/2A3/2{GAG}A3/2e/2 | | \
{ag}a3/2e/2{gcd}c3/2a/2{AGAG}A3/2e/2{gcd}c/2{e}A3/2 | \
{gf}g3/2d/2{gBG}B3/2g/2{gGd}G3/2d/2{gBd}B/2{e}G3/2 |
{gf}g2{ag}a3/2g/2{afg}f3/2d/2{gef}e3/2c/2 | \
{Gdc}d3/2f/2{gef}e3/2d/2{gcd}c/2{e}A3/2{GAG}A2|]
